X: 5040
T: Brian O'Lynn
R: jig
M: 6/8
K: Adorian
B|:cAd cB/A/G|EDE GAB|cAd cB/A/G|EAG A2B|
cAd cB/A/G|EDE GAB|cde ged|1 cA^G A2B:|2 cA^G A2f||
|:~g3 ged|cAB c2d|e2a age|ed^c def|
~g3 ged|cAB cde|ged cAG|1 EAG A2f:|2 EAG A2B||

